Obsidian-SemiLight/actions/24s/media-track-queue-amarok.svg

<svg viewBox="0 0 24 24" xmlns="http://www.w3.org/2000/svg"><path d="m5 4v1h1v2h-1v1h3v-1h-1v-2h1v-1zm6 0v1h9v-1zm0 2v1h6v-1zm-7 4v1h1v2h-1v1h5v-1h-1v-2h1v-1zm7 0v1h4v-1zm-5 1h1v2h-1zm5 1v1h2v-1zm0 4v1h9v-1zm0 2v1h6v-1zm7 1v1h2v-1z" fill="#4d4d4d"/><path d="m17.5 10-2.5 3h5z" fill="#3daee9"/></svg>

<svg xmlns="http://www.w3.org/2000/svg" viewBox="0 0 24 24">
  <defs id="defs3051">
    <style type="text/css" id="current-color-scheme">
      .ColorScheme-Text {
        color:#4d4d4d;
      }
      .ColorScheme-Highlight {
        color:#3daee9;
      }
      </style>
  </defs>
 <path 
     style="fill:currentColor;fill-opacity:1;stroke:none" 
     d="M 5 4 L 5 5 L 6 5 L 6 7 L 5 7 L 5 8 L 8 8 L 8 7 L 7 7 L 7 5 L 8 5 L 8 4 L 5 4 z M 11 4 L 11 5 L 20 5 L 20 4 L 11 4 z M 11 6 L 11 7 L 17 7 L 17 6 L 11 6 z M 4 10 L 4 11 L 5 11 L 5 13 L 4 13 L 4 14 L 9 14 L 9 13 L 8 13 L 8 11 L 9 11 L 9 10 L 4 10 z M 11 10 L 11 11 L 15 11 L 15 10 L 11 10 z M 6 11 L 7 11 L 7 13 L 6 13 L 6 11 z M 11 12 L 11 13 L 13 13 L 13 12 L 11 12 z M 11 16 L 11 17 L 20 17 L 20 16 L 11 16 z M 11 18 L 11 19 L 17 19 L 17 18 L 11 18 z M 18 19 L 18 20 L 20 20 L 20 19 L 18 19 z "
     class="ColorScheme-Text"
     />
 <path 
     style="fill:currentColor;fill-opacity:1;stroke:none" 
     d="M 17.5 10 L 15 13 L 20 13 L 17.5 10 z "
     class="ColorScheme-Highlight"
     />
</svg>
